X:5450
T:Reabart More, or Big Robert
O:england
N:a Very Old Reel
S:Alexander Mackay, A collection of Reels...
B:NLS Glen.344
N:Mc16 in Gore's Scottish Fiddle Music Index
N:Gore guesses 1802, a note (by Murdoch Henderson)
N:on the titlepage says there's an 1832 watermark.
M:C|
L:1/8
K:A
d|Aaed     cA {c}d2|cA A/A/A dBGB|Aaed     cA {c}d2|cABG AEE:|
e|cA A/A/A BGGB    |cA A/A/A dBGB|cA A/A/A BGGe    |cABG AEE:|
